images/facebook.svg

<svg width="38" height="37" viewBox="0 0 38 37" fill="none" xmlns="http://www.w3.org/2000/svg">
<path d="M37.3523 18.1612C37.3523 8.13018 29.1561 0 19.045 0C8.93394 0 0.737671 8.13018 0.737671 18.1612C0.737671 27.2237 7.43261 34.7364 16.1842 36.0985V23.4098H11.5368V18.1597H16.1842V14.1597C16.1842 9.60729 18.9184 7.09348 23.0989 7.09348C25.1022 7.09348 27.197 7.44762 27.197 7.44762V11.9168H24.8901C22.6168 11.9168 21.9073 13.3167 21.9073 14.753V18.1612H26.9849L26.1733 23.4113H21.9073V36.1C30.6589 34.7379 37.3539 27.2252 37.3539 18.1612H37.3523Z" fill="white"/>
</svg>

<svg xmlns="http://www.w3.org/2000/svg" width="38" height="37" fill="none" viewBox="0 0 38 37"><path fill="#fff" d="M37.352 18.161C37.352 8.131 29.156 0 19.045 0S.738 8.13.738 18.161c0 9.063 6.695 16.575 15.446 17.938v-12.69h-4.647v-5.25h4.647v-4c0-4.552 2.734-7.066 6.915-7.066 2.003 0 4.098.355 4.098.355v4.469H24.89c-2.273 0-2.983 1.4-2.983 2.836v3.408h5.078l-.812 5.25h-4.266V36.1c8.752-1.362 15.447-8.875 15.447-17.939z"/></svg>
